brandFactory_export/3.Masa/Calendario_3Masa.svg

<?xml version="1.0" encoding="UTF-8"?>
<svg width="24px" height="24px" viewBox="0 0 24 24" version="1.1" xmlns="http://www.w3.org/2000/svg" xmlns:xlink="http://www.w3.org/1999/xlink">
    <title>3.Masa/Calendario_3Masa</title>
    <g id="Symbols" stroke="none" stroke-width="1" fill="none" fill-rule="evenodd">
        <g id="3.Masa/Calendario_3Masa" fill="#5CB615" fill-rule="nonzero">
            <path d="M20.4739496,2.01680672 L3.12268908,2.01680672 C1.40504202,2.02016807 0.0134453782,3.41176471 0.0100840336,5.12941176 L0.0100840336,18.605042 C0.0134453782,20.3226891 1.40504202,21.7142857 3.12268908,21.7176471 L20.3764706,21.7176471 C22.1478992,21.7142857 23.5831933,20.2789916 23.5865546,18.507563 L23.5865546,5.12941176 C23.5831933,3.41176471 22.1915966,2.02016807 20.4739496,2.01680672 Z M17.0588235,3.77815126 C17.6403361,3.77815126 18.0336134,4.17142857 18.0336134,4.75630252 C18.0336134,5.11260504 17.892437,5.33445378 17.7714286,5.45882353 C17.6504202,5.58319328 17.4252101,5.73445378 17.0588235,5.73445378 C16.692437,5.73445378 16.4705882,5.58319328 16.3462185,5.45882353 C16.2218487,5.33445378 16.0840336,5.11596639 16.0840336,4.75630252 C16.0840336,4.17142857 16.4773109,3.77815126 17.0588235,3.77815126 L17.0588235,3.77815126 Z M6.55462185,3.77815126 C7.13613445,3.77815126 7.52941176,4.17142857 7.52941176,4.75630252 C7.52941176,5.11260504 7.38823529,5.33445378 7.26722689,5.45882353 C7.14621849,5.58319328 6.9210084,5.73445378 6.55462185,5.73445378 C6.18823529,5.73445378 5.96302521,5.58319328 5.84201681,5.45882353 C5.7210084,5.33445378 5.57983193,5.11260504 5.57983193,4.75630252 C5.57983193,4.17142857 5.97310924,3.77815126 6.55462185,3.77815126 L6.55462185,3.77815126 Z M14.0504202,17.7781513 L9.50588235,17.7781513 C9.47563025,17.6941176 9.46554622,17.5596639 9.46554622,17.4453782 C9.46554622,17.0084034 9.57983193,16.7159664 9.88235294,16.3529412 L11.2672269,14.6655462 C12.0605042,13.707563 12.3932773,13.2369748 12.3932773,12.6453782 C12.3932773,12.3428571 12.2991597,12.1142857 12.1109244,11.9563025 C11.892437,11.7680672 11.5394958,11.6840336 11.0285714,11.6840336 C10.5613445,11.6907563 10.0941176,11.7344538 9.63361345,11.8184874 L9.63361345,10.7159664 C10.1781513,10.5882353 10.7327731,10.5210084 11.2907563,10.5176471 C12.312605,10.5176471 12.9882353,10.7462185 13.4252101,11.1831933 C13.7579832,11.5159664 13.9361345,11.9764706 13.9361345,12.5680672 C13.9361345,13.4554622 13.5394958,14.1310924 12.4134454,15.3613445 L11.1731092,16.7159664 L14.0504202,16.7159664 L14.0504202,17.7781513 L14.0504202,17.7781513 Z M22.010084,7.92605042 L1.58655462,7.92605042 C1.25378151,7.92605042 0.981512605,7.70756303 0.981512605,7.43865546 C0.981512605,7.1697479 1.25378151,6.9512605 1.58655462,6.9512605 L22.0067227,6.9512605 C22.3394958,6.9512605 22.6117647,7.1697479 22.6117647,7.43865546 C22.6117647,7.70756303 22.3428571,7.92605042 22.010084,7.92605042 Z" id="Calendario_3Masa"></path>
        </g>
    </g>
</svg>

<svg width="24" height="24" viewBox="0 0 24 24" xmlns="http://www.w3.org/2000/svg"><path d="M20.474 2.017H3.123A3.119 3.119 0 00.01 5.129v13.476a3.119 3.119 0 003.113 3.113h17.253a3.216 3.216 0 003.21-3.21V5.129a3.119 3.119 0 00-3.112-3.112zm-3.415 1.761c.581 0 .975.393.975.978 0 .357-.142.578-.263.703-.12.124-.346.275-.712.275a.967.967 0 01-.713-.275c-.124-.125-.262-.343-.262-.703 0-.585.393-.978.975-.978zm-10.504 0c.581 0 .974.393.974.978 0 .357-.14.578-.262.703-.12.124-.346.275-.712.275-.367 0-.592-.15-.713-.275-.121-.125-.262-.346-.262-.703 0-.585.393-.978.975-.978zm7.495 14H9.506a1.115 1.115 0 01-.04-.333c0-.437.114-.729.416-1.092l1.385-1.687c.794-.958 1.126-1.429 1.126-2.02 0-.303-.094-.532-.282-.69-.219-.188-.572-.272-1.082-.272-.468.007-.935.05-1.395.134v-1.102a7.446 7.446 0 011.657-.198c1.022 0 1.697.228 2.134.665.333.333.511.793.511 1.385 0 .887-.397 1.563-1.523 2.793l-1.24 1.355h2.877v1.062zm7.96-9.852H1.587c-.333 0-.605-.218-.605-.487 0-.27.272-.488.605-.488h20.42c.332 0 .605.219.605.488s-.27.487-.602.487z" fill="#5CB615" fill-rule="nonzero"/></svg>
